icons/arrow-sortB.svg

<svg width="24" height="24" viewBox="0 0 24 24" fill="none" xmlns="http://www.w3.org/2000/svg">
<path fill-rule="evenodd" clip-rule="evenodd" d="M16.8 4.75C17.2143 4.75 17.55 5.08579 17.55 5.5V18.5C17.55 18.9142 17.2143 19.25 16.8 19.25C16.3858 19.25 16.05 18.9142 16.05 18.5V5.5C16.05 5.08579 16.3858 4.75 16.8 4.75Z" fill="black"/>
<path fill-rule="evenodd" clip-rule="evenodd" d="M16.8304 5.33028L16.8304 5.33028L13.1304 9.03028C12.8375 9.32317 12.3626 9.32317 12.0697 9.03028C11.7768 8.73739 11.7768 8.26252 12.0697 7.96962L15.7697 4.26962C16.3626 3.67673 17.3375 3.67673 17.9304 4.26962L21.6304 7.96962C21.9233 8.26252 21.9233 8.73739 21.6304 9.03028C21.3375 9.32317 20.8626 9.32317 20.5697 9.03028L16.8697 5.33028L16.8697 5.33028C16.8695 5.33005 16.8644 5.32495 16.85 5.32495C16.8357 5.32495 16.8306 5.33005 16.8304 5.33028Z" fill="black"/>
<path fill-rule="evenodd" clip-rule="evenodd" d="M12.0697 14.9697C12.3626 14.6768 12.8375 14.6768 13.1304 14.9697L16.8304 18.6697C16.8305 18.6698 16.8356 18.675 16.85 18.675C16.8644 18.675 16.8695 18.6699 16.8697 18.6697L16.8697 18.6697L20.5697 14.9697C20.8626 14.6768 21.3375 14.6768 21.6304 14.9697C21.9233 15.2626 21.9233 15.7374 21.6304 16.0303L17.9304 19.7303C17.3375 20.3232 16.3626 20.3232 15.7697 19.7303L12.0697 16.0303C11.7768 15.7374 11.7768 15.2626 12.0697 14.9697Z" fill="black"/>
<path d="M2.90002 8V6C2.90002 4.9 3.80002 4 4.90002 4H6.90002C8.00002 4 8.90002 4.9 8.90002 6V8C8.90002 9.1 8.00002 10 6.90002 10H4.90002C3.70002 10 2.90002 9.1 2.90002 8Z" fill="black"/>
<path fill-rule="evenodd" clip-rule="evenodd" d="M4.90002 4.75C4.21424 4.75 3.65002 5.31421 3.65002 6V8C3.65002 8.71081 4.13883 9.25 4.90002 9.25H6.90002C7.58581 9.25 8.15002 8.68579 8.15002 8V6C8.15002 5.31421 7.58581 4.75 6.90002 4.75H4.90002ZM2.15002 6C2.15002 4.48579 3.38581 3.25 4.90002 3.25H6.90002C8.41424 3.25 9.65002 4.48579 9.65002 6V8C9.65002 9.51421 8.41424 10.75 6.90002 10.75H4.90002C3.26122 10.75 2.15002 9.48919 2.15002 8V6Z" fill="black"/>
<path d="M2.90002 18V16C2.90002 14.9 3.80002 14 4.90002 14H6.90002C8.00002 14 8.90002 14.9 8.90002 16V18C8.90002 19.1 8.00002 20 6.90002 20H4.90002C3.70002 20 2.90002 19.1 2.90002 18Z" fill="black"/>
<path fill-rule="evenodd" clip-rule="evenodd" d="M4.90002 14.75C4.21424 14.75 3.65002 15.3142 3.65002 16V18C3.65002 18.7108 4.13883 19.25 4.90002 19.25H6.90002C7.58581 19.25 8.15002 18.6858 8.15002 18V16C8.15002 15.3142 7.58581 14.75 6.90002 14.75H4.90002ZM2.15002 16C2.15002 14.4858 3.38581 13.25 4.90002 13.25H6.90002C8.41424 13.25 9.65002 14.4858 9.65002 16V18C9.65002 19.5142 8.41424 20.75 6.90002 20.75H4.90002C3.26122 20.75 2.15002 19.4892 2.15002 18V16Z" fill="black"/>
</svg>

<svg xmlns="http://www.w3.org/2000/svg" fill="none" viewBox="0 0 24 24">
  <path fill="#000" fill-rule="evenodd" d="M16.8 4.75a.75.75 0 0 1 .75.75v13a.75.75 0 1 1-1.5 0v-13a.75.75 0 0 1 .75-.75Z" clip-rule="evenodd"/>
  <path fill="#000" fill-rule="evenodd" d="m16.83 5.33-3.7 3.7a.75.75 0 0 1-1.06-1.06l3.7-3.7a1.535 1.535 0 0 1 2.16 0l3.7 3.7a.75.75 0 1 1-1.06 1.06l-3.7-3.7s-.006-.005-.02-.005-.02.005-.02.005Zm-4.76 9.64a.75.75 0 0 1 1.06 0l3.7 3.7s.006.005.02.005.02-.005.02-.005l3.7-3.7a.75.75 0 0 1 1.06 1.06l-3.7 3.7a1.535 1.535 0 0 1-2.16 0l-3.7-3.7a.75.75 0 0 1 0-1.06Z" clip-rule="evenodd"/>
  <path fill="#000" d="M2.9 8V6c0-1.1.9-2 2-2h2c1.1 0 2 .9 2 2v2c0 1.1-.9 2-2 2h-2c-1.2 0-2-.9-2-2Z"/>
  <path fill="#000" fill-rule="evenodd" d="M4.9 4.75c-.686 0-1.25.564-1.25 1.25v2c0 .71.489 1.25 1.25 1.25h2c.686 0 1.25-.564 1.25-1.25V6c0-.686-.564-1.25-1.25-1.25h-2ZM2.15 6A2.756 2.756 0 0 1 4.9 3.25h2A2.756 2.756 0 0 1 9.65 6v2a2.756 2.756 0 0 1-2.75 2.75h-2c-1.639 0-2.75-1.26-2.75-2.75V6Z" clip-rule="evenodd"/>
  <path fill="#000" d="M2.9 18v-2c0-1.1.9-2 2-2h2c1.1 0 2 .9 2 2v2c0 1.1-.9 2-2 2h-2c-1.2 0-2-.9-2-2Z"/>
  <path fill="#000" fill-rule="evenodd" d="M4.9 14.75c-.686 0-1.25.564-1.25 1.25v2c0 .71.489 1.25 1.25 1.25h2c.686 0 1.25-.564 1.25-1.25v-2c0-.686-.564-1.25-1.25-1.25h-2ZM2.15 16a2.756 2.756 0 0 1 2.75-2.75h2A2.756 2.756 0 0 1 9.65 16v2a2.756 2.756 0 0 1-2.75 2.75h-2c-1.639 0-2.75-1.26-2.75-2.75v-2Z" clip-rule="evenodd"/>
</svg>
